X: 10061
Q: "Moderate."
M: C
L: 1/8
K: G
[|\
d4 cBAG | BAGF GBdf |\
g2fe dBAG | gdcB {B}A4 |\
d4 cBAG | BAGF GBdf |\
g2fe dBec | BdcA G4 |\
g2d2 {f}e2d2 | gBBB {d}c2B2 |
gddd gddd | gdcB HB2HA2 |\
d4 cBAG | BAGF GBdf |\
g2fe dBAG | gdcB {B}A4 |\
d4 {d}cB{B}AG | BAGF GBdf |\


